src/svg/logo-behance.svg

<svg xmlns="http://www.w3.org/2000/svg" class="ionicon" viewBox="0 0 512 512"><title>Logo Behance</title><path d="M344.1 233.6c-28.9 0-32.9 28.8-32.9 28.8h61.4s.4-28.8-28.5-28.8zM204.8 262.4h-54.4v50h51.7c7.8-.2 22.4-2.4 22.4-24.3 0-26-19.7-25.7-19.7-25.7z" fill="currentColor"/><path d="M256 32C132.3 32 32 132.3 32 256s100.3 224 224 224 224-100.3 224-224S379.7 32 256 32zm47.2 137.6h77.1v23h-77.1v-23zm-39 120.8c0 57-59.4 55.2-59.4 55.2h-97.2v-187h97.2c29.6 0 52.9 16.3 52.9 49.8S229.2 244 229.2 244c37.6 0 35 46.4 35 46.4zm144.2-3.1h-96.9c0 34.7 32.9 32.5 32.9 32.5 31.1 0 30-20.1 30-20.1h32.9c0 53.4-64 49.7-64 49.7-76.7 0-71.8-71.5-71.8-71.5s-.1-71.8 71.8-71.8c75.7.1 65.1 81.2 65.1 81.2z" fill="currentColor"/><path d="M218 211.3c0-19.4-13.2-19.4-13.2-19.4h-54.4v41.7h51c8.8 0 16.6-2.9 16.6-22.3z" fill="currentColor"/></svg>

<svg id="Layer_1" data-name="Layer 1" xmlns="http://www.w3.org/2000/svg" viewBox="0 0 512 512"><path d="M344.1,233.6c-28.9,0-32.9,28.8-32.9,28.8h61.4S373,233.6,344.1,233.6Z"/><path d="M204.8,262.4H150.4v50h51.7c7.8-.2,22.4-2.4,22.4-24.3C224.5,262.1,204.8,262.4,204.8,262.4Z"/><path d="M256,32C132.3,32,32,132.3,32,256S132.3,480,256,480,480,379.7,480,256,379.7,32,256,32Zm47.2,137.6h77.1v23H303.2v-23Zm-39,120.8c0,57-59.4,55.2-59.4,55.2H107.6v-187h97.2c29.6,0,52.9,16.3,52.9,49.8S229.2,244,229.2,244C266.8,244,264.2,290.4,264.2,290.4Zm144.2-3.1H311.5c0,34.7,32.9,32.5,32.9,32.5,31.1,0,30-20.1,30-20.1h32.9c0,53.4-64,49.7-64,49.7-76.7,0-71.8-71.5-71.8-71.5s-.1-71.8,71.8-71.8C419,206.2,408.4,287.3,408.4,287.3Z"/><path d="M218,211.3c0-19.4-13.2-19.4-13.2-19.4H150.4v41.7h51C210.2,233.6,218,230.7,218,211.3Z"/></svg>
